build/documents/FileDOCSolid.svg

<svg xmlns="http://www.w3.org/2000/svg" fill="none" viewBox="0 0 24 24" focusable="false"><path d="M0 0H24V24H0z"/><path fill="#74767B" fill-rule="evenodd" d="M5 11L5 6C5 4.34315 6.34315 3 8 3L13.042 3C13.8752 3 14.671 3.34655 15.2385 3.95662L18.1965 7.13629C18.7129 7.69141 19 8.42148 19 9.17966L19 11C20.6569 11 22 12.3431 22 14L22 18C22 19.6569 20.6569 21 19 21L5 21C3.34315 21 2 19.6569 2 18L2 14C2 12.3431 3.34315 11 5 11ZM13.042 4.3L8 4.3C7.06112 4.3 6.3 5.06112 6.3 6L6.3 11L17.7 11L17.7 9.17966C17.7 9.11913 17.6968 9.05892 17.6904 8.99925L15.2999 8.99926C14.223 8.99926 13.3499 8.12621 13.3499 7.04926L13.3499 4.32811C13.2491 4.30954 13.1461 4.3 13.042 4.3ZM14.6499 5.23254L16.9447 7.69926L15.2999 7.69926C14.9409 7.69926 14.6499 7.40824 14.6499 7.04926L14.6499 5.23254ZM5.51597 18.2182C5.63787 18.3401 5.80319 18.4086 5.97559 18.4086L7.14109 18.4086C8.21804 18.4086 9.09109 17.5356 9.09109 16.4586L9.09109 15.5413C9.09109 14.4644 8.21804 13.5913 7.14109 13.5913L5.97559 13.5913C5.8032 13.5913 5.63787 13.6598 5.51597 13.7817C5.39407 13.9036 5.32559 14.0689 5.32559 14.2413L5.32559 17.7586C5.32559 17.931 5.39407 18.0963 5.51597 18.2182ZM12.2279 18.4086C11.1881 18.4086 10.3451 17.5657 10.3451 16.5259L10.3451 15.4741C10.3451 14.4343 11.1881 13.5913 12.2279 13.5913C13.2677 13.5913 14.1106 14.4343 14.1106 15.4741L14.1106 16.5259C14.1106 17.5657 13.2677 18.4086 12.2279 18.4086ZM17.3322 17.1086C16.9732 17.1086 16.6822 16.8176 16.6822 16.4586L16.6822 15.5413C16.6822 15.1823 16.9732 14.8913 17.3322 14.8913L18.0243 14.8913C18.3832 14.8913 18.6743 14.6003 18.6743 14.2413C18.6743 13.8823 18.3832 13.5913 18.0243 13.5913L17.3322 13.5913C16.2553 13.5913 15.3822 14.4644 15.3822 15.5413L15.3822 16.4586C15.3822 17.5356 16.2553 18.4086 17.3322 18.4086L18.0243 18.4086C18.3832 18.4086 18.6743 18.1176 18.6743 17.7586C18.6743 17.3996 18.3832 17.1086 18.0243 17.1086L17.3322 17.1086ZM6.62559 14.8913L6.62559 17.1086L7.14109 17.1086C7.50007 17.1086 7.79109 16.8176 7.79109 16.4586L7.79109 15.5413C7.79109 15.1823 7.50007 14.8913 7.14109 14.8913L6.62559 14.8913ZM12.2279 17.1086C11.906 17.1086 11.6451 16.8477 11.6451 16.5259L11.6451 15.4741C11.6451 15.1522 11.906 14.8913 12.2279 14.8913C12.5497 14.8913 12.8106 15.1522 12.8106 15.4741L12.8106 16.5259C12.8106 16.8477 12.5497 17.1086 12.2279 17.1086Z"/></svg>

<svg xmlns="http://www.w3.org/2000/svg" fill="none" viewBox="0 0 24 24" focusable="false"><path fill="#74767B" fill-rule="evenodd" d="M5 11V6c0-1.66 1.34-3 3-3h5.04c.83 0 1.63.34 2.19.95l2.96 3.18c.52.56.81 1.29.81 2.04V11c1.65 0 3 1.34 3 3v4c0 1.65-1.35 3-3 3H5c-1.66 0-3-1.35-3-3v-4c0-1.66 1.34-3 3-3m8.04-6.71H8c-.94 0-1.7.77-1.7 1.71v5h11.4V9.17c0-.06-.01-.12-.01-.18h-2.4c-1.07 0-1.95-.87-1.95-1.95V4.32q-.15-.03-.3-.03m1.6.94 2.3 2.46h-1.65c-.35 0-.65-.29-.65-.65zM5.51 18.21c.12.13.29.19.46.19h1.17c1.07 0 1.95-.87 1.95-1.95v-.91c0-1.08-.88-1.95-1.95-1.95H5.97a.62.62 0 0 0-.46.19c-.12.12-.19.28-.19.46v3.51c0 .18.07.34.19.46m6.71.19c-1.04 0-1.88-.84-1.88-1.88v-1.05c0-1.04.84-1.88 1.88-1.88s1.89.84 1.89 1.88v1.05c0 1.04-.85 1.88-1.89 1.88m5.11-1.3c-.36 0-.65-.29-.65-.65v-.91c0-.36.29-.65.65-.65h.69c.36 0 .65-.29.65-.65s-.29-.65-.65-.65h-.69c-1.08 0-1.95.87-1.95 1.95v.91c0 1.08.87 1.95 1.95 1.95h.69c.36 0 .65-.29.65-.65s-.29-.65-.65-.65zM6.62 14.89v2.21h.52c.36 0 .65-.29.65-.65v-.91c0-.36-.29-.65-.65-.65zm5.6 2.21a.58.58 0 0 1-.58-.58v-1.05c0-.32.26-.58.58-.58s.59.26.59.58v1.05c0 .32-.27.58-.59.58"/></svg>
